X: 1
T: Adam Bell's March
%R: march
F: http://ancients.sudburymuster.org/mus/sng/pdf/adambellsC0.pdf
Z: 2020 John Chambers <jc:trillian.mit.edu>
M: 2/4
L: 1/16
Q: 1/4=92
K: Edor
|:\
E2B2 B2A2 | B2BA BcdB | AFDF AFDF | A2AB A2GF ||\
E2B2 B2A2 | B2B2 g2e2 | dcB2 AGF2 | G2E2 E4   :|
|:\
e2ee e2g2 | e2ee e2g2 | d2dd d2f2 | d2dd d2f2 ||\
e2ee e2g2 | e2ee e2f2 | gfed edBA | B2E2 E4   :|
